icons/src/list.bullet.below.rectangle.svg

<!--Generator: Apple Native CoreSVG 341-->
<!DOCTYPE svg  PUBLIC '-//W3C//DTD SVG 1.1//EN'  'http://www.w3.org/Graphics/SVG/1.1/DTD/svg11.dtd'>
<svg version="1.1" viewBox="0 0 19.053 18.252" xmlns="http://www.w3.org/2000/svg">
 <rect width="19.053" height="18.252" opacity="0"/>
 <path d="m18.34 17.197c0-0.4297-0.3515-0.752-0.83-0.752h-13.145c-0.47851 0-0.83007 0.3223-0.83007 0.752s0.35156 0.7617 0.83007 0.7617h13.145c0.4785 0 0.83-0.332 0.83-0.7617z" fill="#fff"/>
 <path d="m2.3047 17.197c0-0.5762-0.46875-1.0645-1.0645-1.0645-0.57617 0-1.0449 0.4883-1.0449 1.0645 0 0.5859 0.46875 1.0547 1.0449 1.0547 0.59571 0 1.0645-0.4688 1.0645-1.0547z" fill="#fff"/>
 <path d="m18.34 13.369c0-0.4296-0.3515-0.7519-0.83-0.7519h-13.145c-0.47851 0-0.83007 0.3223-0.83007 0.7519 0 0.4297 0.35156 0.7618 0.83007 0.7618h13.145c0.4785 0 0.83-0.3321 0.83-0.7618z" fill="#fff"/>
 <path d="m2.3047 13.369c0-0.5761-0.46875-1.0546-1.0645-1.0546-0.57617 0-1.0449 0.4785-1.0449 1.0546 0 0.586 0.46875 1.045 1.0449 1.045 0.59571 0 1.0645-0.459 1.0645-1.045z" fill="#fff"/>
 <path d="m2.7051 0.23438c-1.9922 0-2.7051 0.86914-2.7051 2.7637v4.541c0 1.8945 0.71289 2.7636 2.7051 2.7636h13.281c1.9922 0 2.7051-0.86911 2.7051-2.7636v-4.541c0-1.8945-0.7129-2.7637-2.7051-2.7637zm-1.1328 7.3535v-4.6387c0-0.86914 0.2832-1.25 1.1426-1.25h13.262c0.8593 0 1.1425 0.38086 1.1425 1.25v4.6387c0 0.86914-0.2832 1.25-1.1425 1.25h-13.262c-0.85937 0-1.1426-0.38086-1.1426-1.25z" fill="#fff"/>
</svg>

<?xml version="1.0" encoding="UTF-8"?>
<!--Generator: Apple Native CoreSVG 341-->
<!DOCTYPE svg
PUBLIC "-//W3C//DTD SVG 1.1//EN"
       "http://www.w3.org/Graphics/SVG/1.1/DTD/svg11.dtd">
<svg version="1.1" xmlns="http://www.w3.org/2000/svg" xmlns:xlink="http://www.w3.org/1999/xlink" viewBox="0 0 19.0527 18.252">
 <g>
  <rect height="18.252" opacity="0" width="19.0527" x="0" y="0"/>
  <path d="M18.3398 17.1973C18.3398 16.7676 17.9883 16.4453 17.5098 16.4453L4.36523 16.4453C3.88672 16.4453 3.53516 16.7676 3.53516 17.1973C3.53516 17.627 3.88672 17.959 4.36523 17.959L17.5098 17.959C17.9883 17.959 18.3398 17.627 18.3398 17.1973Z" fill="white"/>
  <path d="M2.30469 17.1973C2.30469 16.6211 1.83594 16.1328 1.24023 16.1328C0.664062 16.1328 0.195312 16.6211 0.195312 17.1973C0.195312 17.7832 0.664062 18.252 1.24023 18.252C1.83594 18.252 2.30469 17.7832 2.30469 17.1973Z" fill="white"/>
  <path d="M18.3398 13.3691C18.3398 12.9395 17.9883 12.6172 17.5098 12.6172L4.36523 12.6172C3.88672 12.6172 3.53516 12.9395 3.53516 13.3691C3.53516 13.7988 3.88672 14.1309 4.36523 14.1309L17.5098 14.1309C17.9883 14.1309 18.3398 13.7988 18.3398 13.3691Z" fill="white"/>
  <path d="M2.30469 13.3691C2.30469 12.793 1.83594 12.3145 1.24023 12.3145C0.664062 12.3145 0.195312 12.793 0.195312 13.3691C0.195312 13.9551 0.664062 14.4141 1.24023 14.4141C1.83594 14.4141 2.30469 13.9551 2.30469 13.3691Z" fill="white"/>
  <path d="M2.70508 0.234375C0.712891 0.234375 0 1.10352 0 2.99805L0 7.53906C0 9.43359 0.712891 10.3027 2.70508 10.3027L15.9863 10.3027C17.9785 10.3027 18.6914 9.43359 18.6914 7.53906L18.6914 2.99805C18.6914 1.10352 17.9785 0.234375 15.9863 0.234375ZM1.57227 7.58789L1.57227 2.94922C1.57227 2.08008 1.85547 1.69922 2.71484 1.69922L15.9766 1.69922C16.8359 1.69922 17.1191 2.08008 17.1191 2.94922L17.1191 7.58789C17.1191 8.45703 16.8359 8.83789 15.9766 8.83789L2.71484 8.83789C1.85547 8.83789 1.57227 8.45703 1.57227 7.58789Z" fill="white"/>
 </g>
</svg>
